svg/icons/src/icon-linkedin.svg

<?xml version="1.0" encoding="UTF-8"?>
<svg width="32px" height="32px" viewBox="0 0 32 32" version="1.1" xmlns="http://www.w3.org/2000/svg" xmlns:xlink="http://www.w3.org/1999/xlink">
    <!-- Generator: Sketch 52.5 (67469) - http://www.bohemiancoding.com/sketch -->
    <title>icon-linkedin</title>
    <desc>Created with Sketch.</desc>
    <g id="icon-linkedin" stroke="none" stroke-width="1" fill="none" fill-rule="evenodd">
        <path d="M27,26 L22.1377,26 L22.1377,18.9692 C22.1377,17.128898 21.3771165,15.872575 19.7046095,15.872575 C18.4253295,15.872575 17.7138995,16.720369 17.382761,17.537427 C17.258584,17.8306975 17.277987,18.2392265 17.277987,18.6477555 L17.277987,26 L12.4609595,26 C12.4609595,26 12.523048,13.5456235 12.4609595,12.4135235 L17.277987,12.4135235 L17.277987,14.5458155 C17.562559,13.613498 19.1018345,12.282897 21.558208,12.282897 C24.605715,12.282897 27,14.2371775 27,18.445412 L27,26 Z M7.589605,10.7140935 L7.5585605,10.7140935 C6.00635,10.7140935 5,9.675482 5,8.358968 C5,7.0168405 6.0361005,6 7.6193555,6 C9.201317,6 10.1740355,7.0142795 10.20508,8.355126 C10.20508,9.67164 9.201317,10.7140935 7.589605,10.7140935 Z M5.5549155,12.4135235 L9.8428975,12.4135235 L9.8428975,26 L5.5549155,26 L5.5549155,12.4135235 Z" id="social-icon-linkedIn" fill="#2333FF" fill-rule="nonzero"></path>
    </g>
</svg>

<svg width="32" height="32" xmlns="http://www.w3.org/2000/svg"><path d="M27 26h-4.862v-7.03c0-1.841-.76-3.097-2.433-3.097-1.28 0-1.991.847-2.322 1.664-.124.294-.105.702-.105 1.11V26h-4.817s.062-12.454 0-13.586h4.817v2.132c.285-.933 1.824-2.263 4.28-2.263 3.048 0 5.442 1.954 5.442 6.162V26zM7.59 10.714h-.031C6.006 10.714 5 9.675 5 8.36 5 7.017 6.036 6 7.62 6c1.581 0 2.554 1.014 2.585 2.355 0 1.317-1.004 2.36-2.615 2.36zm-2.035 1.7h4.288V26H5.555V12.414z" fill="#2333FF"/></svg>
